!!!OTL: Bittfahrtslied
!!!ARE: Europa, Mitteleuropa, Deutschland
!!!SCT: A0568C
!!!YEM: Copyright 1995, estate of Helmut Schaffrath.
**kern
*ICvox
*Ivox
*M4/1
*k[f#]
*G:
{2g
=1
1g
1g
1g
1g
=2
2g
2a
1b
1cc
2r}
{2cc
=3
1dd
1dd
1cc
1g
=4
1a
1b
1cc
2r}
{2cc
=5
1dd
1dd
1cc
1g
=6
1a
1g
1fn
2r}
{2fn
=7
1a
1b-
1cc
1cc
=8
1b-
1g
0b-}
=9
{2a
2g
1a
2g
2f#
1g}
==
!!!AGN: Romanze, Ballade, Lied, religioeses Lied
!! Leisentrit 1567 fol. 147
!!!ONB: ESAC (Essen Associative Code) Database: ALTDEU
!!!AMT: simple quadruple
!!!AIN: vox
!!!EED: Helmut Schaffrath
!!!EEV: 1.0
*-
